X: 10072
T: Dickie Gossip
R: reel
M: 4/4
K: Dmajor
|:AG|FAdf ecAc|dAFA AGFE|D2 dA BAGF|E2 ED E2 AG|
FDD=c BAAg|fefg aecA|(3Bcd cB AGFE|D2 CE D2:|
|:(3ABc|dAFA dAFA|BAdA BA A2|afge faed|cded cA A2|
Dddd Deee|Dfff Dggg|(3fga fd (3efg ec|d2 dc d2:|

